svgs/solid/tower-control.svg

<svg xmlns="http://www.w3.org/2000/svg" viewBox="0 0 448 512"><!--! Font Awesome Pro 6.6.0 by @fontawesome - https://fontawesome.com License - https://fontawesome.com/license (Commercial License) Copyright 2024 Fonticons, Inc. --><path d="M184 0c-13.3 0-24 10.7-24 24s10.7 24 24 24l16 0 0 48-40 0c-17.7 0-32 14.3-32 32l-85.4 0C16 128-3.2 153.4 4.1 179L44.5 320.2C28.5 321.9 16 335.5 16 352c0 17.7 14.3 32 32 32l32 0 0 96c0 17.7 14.3 32 32 32l224 0c17.7 0 32-14.3 32-32l0-96 32 0c17.7 0 32-14.3 32-32c0-16.5-12.5-30.1-28.5-31.8L443.9 179c7.3-25.6-11.9-51-38.5-51L320 128c0-17.7-14.3-32-32-32l-40 0 0-48 16 0c13.3 0 24-10.7 24-24s-10.7-24-24-24L224 0 184 0zM128 192l0 128-17 0c-.1-.3-.1-.5-.2-.8L74.4 192l53.6 0zm48 128l0-128 96 0 0 128-96 0zM320 192l53.6 0L337.2 319.2l-.1 .3-.1 .5-17 0 0-128z"/></svg>

<svg xmlns="http://www.w3.org/2000/svg" viewBox="0 0 448 512"><!--! Font Awesome Pro 6.5.2 by @fontawesome - https://fontawesome.com License - https://fontawesome.com/license (Commercial License) Copyright 2024 Fonticons, Inc. --><path d="M184 0c-13.3 0-24 10.7-24 24s10.7 24 24 24h16V96H160c-17.7 0-32 14.3-32 32H42.6C16 128-3.2 153.4 4.1 179L44.5 320.2C28.5 321.9 16 335.5 16 352c0 17.7 14.3 32 32 32H80v96c0 17.7 14.3 32 32 32H336c17.7 0 32-14.3 32-32V384l32 0c17.7 0 32-14.3 32-32c0-16.5-12.5-30.1-28.5-31.8L443.9 179c7.3-25.6-11.9-51-38.5-51H320c0-17.7-14.3-32-32-32H248V48h16c13.3 0 24-10.7 24-24s-10.7-24-24-24H224 184zM128 192V320H111c-.1-.3-.1-.5-.2-.8L74.4 192H128zm48 128V192h96V320l-96 0zM320 192h53.6L337.2 319.2l-.1 .3-.1 .5H320V192z"/></svg>
